!!!!SEGMENT: pl-sa--201-a-vi-5_anonim--offertorium-de-omnibus-sanctis.krn
!!!cenid: 17xx:696
!!!COM: Anonim
!!!COM-rismid: pe30004985
!!!CDT:
!!!CNT:
!!!OTL: Offertorium de Omnibus Sanctis
!!!PDT:
!!!AGN: Sacred
!!!SMS-siglum: PL-SA
!!!SMS-shelfmark: 201/A VI 5
!!!SMS-shelfwork: W
!!!SMS-variant:
!!!SMS-altvar:
!!!NIFC-rismid: 1001035123
!!!URL-scan: http://bc.bdsandomierz.pl/dlibra/publication/1557/edition/1525/content
!!!ONB-nifc:
!!!AIN: 1 empty 2 oboe 1 organ 2 violn
!!!key:
**kern	**fb	**dynam	**kern	**kern	**dynam	**kern	**text	**kern	**kern
*part6	*	*part6	*part5	*part4	*part4	*part3	*part3	*part2	*part1
*staff6	*	*	*staff5	*staff4	*	*staff3	*staff3	*staff2	*staff1
*Iorgan	*	*	*Ivioln	*Ivioln	*	*Iempty	*	*Ioboe	*Ioboe
*I"Organo:	*	*	*I"Violino Secundo	*I"Violino Primo	*	*I"Baſso:	*	*I"Huobois 2da	*I"Huobois 1ma
*I'Org.	*	*	*I'Violino Secundo	*I'Violino Primo	*	*I'B.	*	*I'Huobois 2da	*I'Huobois 1ma
*clefF4	*	*	*clefG2	*clefG2	*	*clefF4	*	*clefG2	*clefG2
*	*	*	*	*	*	*	*	*ITrd1c2	*ITrd1c2
*k[b-]	*	*	*k[b-]	*k[b-]	*	*k[b-]	*	*k[b-]	*k[b-]
*g:	*	*	*g:	*g:	*	*g:	*	*g:	*g:
*M4/4	*	*	*M4/4	*M4/4	*	*M4/4	*	*M4/4	*M4/4
*met(c|)	*	*	*met(c|)	*	*	*met(c|)	*	*met(c|)	*met(c|)
=1	=1	=1	=1	=1	=1	=1	=1	=1	=1
*	*above	*	*	*	*	*	*	*	*
!	!	!	!	!	!	!	!	!LO:TX:a:t=Tardè	!LO:TX:b:t=Iustorum animae.
!LO:TX:a:t=Solo	!	!	!	!	!	!	!	!LO:TX:b:t=Iustoru(m) animae.	!LO:TX:t=P:problem=w źródle nie krzyżyka przykluczowego
!LO:TX:b:t=Iustorum animae.	!	!	!LO:TX:b:t=Iustoru(m) animae&colon;	!LO:TX:b:t=Iustoru(m) animae&colon;	!	!LO:TX:b:t=Iustoru(m) animae&colon;	!	!	!
!LO:TX:a:t=Tardè	!	!	!LO:TX:a:t=Tardè	!LO:TX:a:t=Tardè	!	!LO:TX:a:t=Tardè	!	!LO:TX:t=P:problem=w źródle nie krzyżyka przykluczowego	!LO:TX:a:t=Tardè
!LO:TX:t=P:problem=nad 3 kolejnymi nutami falowana linia	!	!	!	!	!	!	!	!LO:N:vis=00	!LO:N:vis=00
!	!	!	!LO:N:vis=00	!LO:N:vis=00	!	!LO:N:vis=00	!	!	!
8G\L	.	.	00r	00r	.	00r	.	00r	00r
8G\	.	.	.	.	.	.	.	.	.
8G\	.	.	.	.	.	.	.	.	.
8G\J	4 2	.	.	.	.	.	.	.	.
!LO:TX:t=P:problem=pod 2 kolejnymi nutami falowana linia	!	!	!	!	!	!	!	!	!
8D/L	X #	.	.	.	.	.	.	.	.
8D/J	.	.	.	.	.	.	.	.	.
4D/	.	.	.	.	.	.	.	.	.
=2	=2	=2	=2	=2	=2	=2	=2	=2	=2
8r	.	.	.	.	.	.	.	.	.
!LO:TX:t=P:problem=pod 3 kolejnymi nutami falowana linia	!	!	!	!	!	!	!	!	!
!	!	!LO:DY:b:t=piano	!	!	!	!	!	!	!
!	!	!LO:DY:b	!	!	!	!	!	!	!
8GG/L	.	p	.	.	.	.	.	.	.
8GG/	.	.	.	.	.	.	.	.	.
8GG/J	4 2	.	.	.	.	.	.	.	.
8D/L	.	.	.	.	.	.	.	.	.
8D/J	X #	.	.	.	.	.	.	.	.
4D/	.	.	.	.	.	.	.	.	.
=3	=3	=3	=3	=3	=3	=3	=3	=3	=3
!LO:TX:t=P:problem=pod 4 kolejnymi nutami falowana linia	!	!	!	!	!	!	!	!	!
!	!	!LO:DY:t=forte	!	!	!	!	!	!	!
!	!	!LO:DY:b	!	!	!	!	!	!	!
8BB-/L	.	f	.	.	.	.	.	.	.
8BB-/	.	.	.	.	.	.	.	.	.
8BB-/	.	.	.	.	.	.	.	.	.
8BB-/J	4- 2	.	.	.	.	.	.	.	.
!LO:TX:t=P:problem=nad 2 kolejnymi nutami falowana linia	!	!	!	!	!	!	!	!	!
8F\L	.	.	.	.	.	.	.	.	.
8F\J	.	.	.	.	.	.	.	.	.
4F\	.	.	.	.	.	.	.	.	.
=4	=4	=4	=4	=4	=4	=4	=4	=4	=4
8r	.	.	.	.	.	.	.	.	.
!LO:TX:t=P:problem=pod 3 kolejnymi nutami falowana linia	!	!	!	!	!	!	!	!	!
!	!	!LO:DY:b	!	!	!	!	!	!	!
!	!	!LO:DY:t=piano	!	!	!	!	!	!	!
8BB-/L	.	p	.	.	.	.	.	.	.
8BB-/	.	.	.	.	.	.	.	.	.
8BB-/J	4 2	.	.	.	.	.	.	.	.
!LO:TX:t=P:problem=pod 2 kolejnymi nutami falowana linia	!	!	!	!	!	!	!	!	!
8FF/L	.	.	.	.	.	.	.	.	.
8FF/J	.	.	.	.	.	.	.	.	.
4FF/	.	.	.	.	.	.	.	.	.
=5	=5	=5	=5	=5	=5	=5	=5	=5	=5
!	!	!	!LO:N:vis=00	!LO:N:vis=00	!	!LO:N:vis=00	!	!LO:N:vis=0	!LO:N:vis=0
8r	.	.	00r	00r	.	00r	.	0r	0r
!LO:TX:t=P:problem=nad 3 kolejnymi nutami falowana linia	!	!	!	!	!	!	!	!	!
!	!	!LO:DY:b	!	!	!	!	!	!	!
!	!	!LO:DY:t=forte	!	!	!	!	!	!	!
8F#X\L	5 3	f	.	.	.	.	.	.	.
8F#\	.	.	.	.	.	.	.	.	.
8F#\J	.	.	.	.	.	.	.	.	.
!LO:TX:t=P:problem=nad 2 kolejnymi nutami falowana linia	!	!	!	!	!	!	!	!	!
8G\L	.	.	.	.	.	.	.	.	.
8G\J	.	.	.	.	.	.	.	.	.
8r	.	.	.	.	.	.	.	.	.
8G\	.	.	.	.	.	.	.	.	.
=6	=6	=6	=6	=6	=6	=6	=6	=6	=6
8D/L	.	.	.	.	.	.	.	.	.
.	X #	.	.	.	.	.	.	.	.
8D/J	.	.	.	.	.	.	.	.	.
!LO:LB:g=original	!	!	!	!	!	!	!	!	!
8r	.	.	.	.	.	.	.	.	.
8BB-/	.	.	.	.	.	.	.	.	.
!LO:TX:t=P:problem=pod 2 kolejnymi nutami falowana linia	!	!	!	!	!	!	!	!	!
8FF/L	.	.	.	.	.	.	.	.	.
8FF/J	.	.	.	.	.	.	.	.	.
8r	.	.	.	.	.	.	.	.	.
8F\	.	.	.	.	.	.	.	.	.
=7	=7	=7	=7	=7	=7	=7	=7	=7	=7
!LO:TX:t=P:problem=nad 4 kolejnymi nutami falowana linia	!	!	!	!	!	!	!	!	!
8F#X\L	5 3	.	.	.	.	.	.	1r	1r
8F#\	.	.	.	.	.	.	.	.	.
8F#\	.	.	.	.	.	.	.	.	.
8F#\J	X 6	.	.	.	.	.	.	.	.
!LO:TX:t=P:problem=nad 2 kolejnymi nutami falowana linia	!	!	!	!	!	!	!	!	!
8G\L	.	.	.	.	.	.	.	.	.
8G\J	.	.	.	.	.	.	.	.	.
!LO:TX:t=P:problem=pod 2 kolejnymi nutami falowana linia	!	!	!	!	!	!	!	!	!
8D/L	.	.	.	.	.	.	.	.	.
.	x #	.	.	.	.	.	.	.	.
8D/J	.	.	.	.	.	.	.	.	.
=8	=8	=8	=8	=8	=8	=8	=8	=8	=8
8GG/	.	.	.	.	.	.	.	8r	8r
!	!	!	!	!	!	!	!	!LO:TX:a:t=Solo	!LO:TX:a:t=Solo
8r	.	.	.	.	.	.	.	8g/	8b-\
!LO:TX:t=P:problem=pod 2 kolejnymi nutami falowana linia	!	!	!	!	!	!	!	!	!
8GG/L	.	.	.	.	.	.	.	8g/L	8b-\L
8GG/J	4 2	.	.	.	.	.	.	16g/L	16b-\L
.	.	.	.	.	.	.	.	16a/JJ	16cc\JJ
!LO:TX:t=P:problem=pod 2 kolejnymi nutami falowana linia	!	!	!	!	!	!	!	!	!
8D/L	.	.	.	.	.	.	.	8.f#X/L	8.a/L
.	X #	.	.	.	.	.	.	.	.
8D/J	.	.	.	.	.	.	.	.	.
.	.	.	.	.	.	.	.	16f#/Jk	16a/Jk
4D/	.	.	.	.	.	.	.	4f#/	4a/
=9	=9	=9	=9	=9	=9	=9	=9	=9	=9
!	!	!	!LO:N:vis=00	!LO:N:vis=00	!	!LO:N:vis=00	!	!	!
8r	.	.	00r	00r	.	00r	.	8r	8r
!LO:TX:t=P:problem=pod 3 kolejnymi nutami falowana linia	!	!	!	!	!	!	!	!	!
8BB-/L	.	.	.	.	.	.	.	8b-\	8dd\
8BB-/	.	.	.	.	.	.	.	8b-\L	8dd\L
8BB-/J	.	.	.	.	.	.	.	16b-\L	16dd\L
.	.	.	.	.	.	.	.	16cc\JJ	16ee\JJ
!LO:TX:t=P:problem=pod 2 kolejnymi nutami falowana linia	!	!	!	!	!	!	!	!	!
8FF/L	.	.	.	.	.	.	.	8.a/L	8.cc\L
8FF/J	.	.	.	.	.	.	.	.	.
.	.	.	.	.	.	.	.	16a/Jk	16cc\Jk
4FF/	.	.	.	.	.	.	.	4a/	4cc\
=10	=10	=10	=10	=10	=10	=10	=10	=10	=10
8r	.	.	.	.	.	.	.	8r	8r
!LO:TX:t=P:problem=pod 3 kolejnymi nutami falowana linia	!	!	!	!	!	!	!	!	!
8C/L	X -	.	.	.	.	.	.	8cc\	8ee\
8C/	.	.	.	.	.	.	.	8cc\L	8ee\L
8C/J	.	.	.	.	.	.	.	16cc\L	16ee\L
.	.	.	.	.	.	.	.	16dd\JJ	16ff\JJ
8D/L	X 6	.	.	.	.	.	.	8.b-\L	8.dd\L
8D/J	.	.	.	.	.	.	.	.	.
.	.	.	.	.	.	.	.	16b-\Jk	16dd\Jk
4D/	.	.	.	.	.	.	.	4b-\	4dd\
=11	=11	=11	=11	=11	=11	=11	=11	=11	=11
8r	.	.	.	.	.	.	.	8r	8r
!LO:TX:t=P:problem=pod 3 kolejnymi nutami falowana linia	!	!	!	!	!	!	!	!	!
8BB-/L	.	.	.	.	.	.	.	8dd\	8ff\
8BB-/	.	.	.	.	.	.	.	8dd\L	8ff\L
8BB-/J	.	.	.	.	.	.	.	16dd\L	16ff\L
.	.	.	.	.	.	.	.	16ee\JJ	16gg\JJ
!	!	!	!	!	!	!	!	!LO:LB:g=original	!LO:LB:g=original
8C/L	.	.	.	.	.	.	.	8cc\L	8ee\L
16D/L	.	.	.	.	.	.	.	16b-\L	16dd\L
16E/JJ	.	.	.	.	.	.	.	16a\JJ	16cc\JJ
!LO:TX:a:t=P:problem=mixed beam	!	!	!	!	!	!	!	!	!
8F\L	X 4	.	.	.	.	.	.	8.b-\L	8dd\L
8FF/J	X 3	.	.	.	.	.	.	.	16cc\L
.	.	.	.	.	.	.	.	16a\Jk	16b-\JJ
!LO:LB:g=original	!	!	!	!	!	!	!	!	!
=12	=12	=12	=12	=12	=12	=12	=12	=12	=12
!LO:TX:a:t=P:problem=mixed beam	!	!	!	!	!	!	!	!	!
8BB-/L	.	.	.	.	.	.	.	8b-\L	8b-\L
!LO:TX:t=P:problem=nad 3 kolejnymi nutami falowana linia	!	!	!	!	!	!	!	!	!
8F#X\	5 3	.	.	.	.	.	.	8a\J	8cc\J
8F#\	.	.	.	.	.	.	.	8a\L	8cc\L
8F#\J	X 6	.	.	.	.	.	.	16b-\L	16dd\L
.	.	.	.	.	.	.	.	16a\JJ	16cc\JJ
!LO:TX:a:t=P:problem=mixed beam	!	!	!	!	!	!	!	!	!
8G\L	.	.	.	.	.	.	.	8g/L	8b-\L
16BB-/L	X 6	.	.	.	.	.	.	16a/L	16cc\L
16C/JJ	.	.	.	.	.	.	.	16g/JJ	16b-\JJ
4D/	X 4	.	.	.	.	.	.	8.g/L	8b-\L
.	.	.	.	.	.	.	.	.	16a\L
.	.	.	.	.	.	.	.	16f#X/Jk	16g\JJ
=13	=13	=13	=13	=13	=13	=13	=13	=13	=13
!	!	!	!LO:TX:a:t=Solo	!	!	!LO:N:vis=00	!	!	!LO:TX:b:t=vv
8GG/L	.	.	8r	8r	.	00r	.	4g/	4g/
!LO:TX:t=P:problem=pod 3 kolejnymi nutami falowana linia	!	!	!	!	!	!	!	!	!
!	!	!	!	!	!LO:DY:a	!	!	!	!
8BB-/	.	.	8dd\	8ff\	f	.	.	.	.
8BB-/	.	.	8dd\L	8ff\L	.	.	.	4r	4r
8BB-/J	.	.	16dd\L	16ff\L	.	.	.	.	.
.	.	.	16ee-X\JJ	16gg\JJ	.	.	.	.	.
!LO:TX:t=P:problem=pod 4 kolejnymi nutami falowana linia	!	!	!	!	!	!	!	!LO:TX:t=P:problem=w źródle pomiędzy 2r a 00r brak kreski taktowej	!
8C/L	X -	.	8cc\L	8ee-X\L	.	.	.	2r	2r
8C/	.	.	8cc\J	8ee-\J	.	.	.	.	.
8C/	.	.	8cc\L	8ee-\L	.	.	.	.	.
8C/J	.	.	16dd\L	16ff\L	.	.	.	.	.
.	.	.	16cc\JJ	16ee-\JJ	.	.	.	.	.
=14	=14	=14	=14	=14	=14	=14	=14	=14	=14
!LO:TX:t=P:problem=pod 3 kolejnymi nutami falowana linia	!	!	!	!	!	!	!	!	!
8D/L	X 6	.	8b-/L	8dd\L	.	.	.	00r	00r
8D/	.	.	8b-/J	8dd\J	.	.	.	.	.
8D/	.	.	8b-/L	8dd\L	.	.	.	.	.
8D/J	.	.	16a/L	16cc\L	.	.	.	.	.
.	.	.	16g/JJ	16b-\JJ	.	.	.	.	.
16F\LL	.	.	8a/L	8cc\L	.	.	.	.	.
16E-X\	.	.	.	.	.	.	.	.	.
16D\	.	.	16b-/L	16dd\L	.	.	.	.	.
16E-X\JJ	.	.	16cc/JJ	16ee-X\JJ	.	.	.	.	.
!LO:TX:a:t=P:problem=mixed beam	!	!	!	!	!	!	!	!	!
8F\L	.	.	8.b-/L	8dd\L	.	.	.	.	.
8FF/J	.	.	.	16cc\L	.	.	.	.	.
.	.	.	16a/Jk	16b-\JJ	.	.	.	.	.
=15	=15	=15	=15	=15	=15	=15	=15	=15	=15
4BB-/	.	.	8b-/L	8b-/L	.	.	.	.	.
.	.	.	8d/J	8f/J	.	.	.	.	.
8r	.	.	8d/L	8f/L	.	.	.	.	.
8BB-/	.	.	16d/L	16f/L	.	.	.	.	.
.	.	.	16e/JJ	16g/JJ	.	.	.	.	.
4C/	X -	.	8c/L	8e-X/L	.	.	.	.	.
.	.	.	8c/J	8e-/J	.	.	.	.	.
8r	.	.	8c/L	8e-/L	.	.	.	.	.
8FF/	X -7	.	16d/L	16f/L	.	.	.	.	.
.	.	.	16c/JJ	16e-/JJ	.	.	.	.	.
!	!	!	!	!LO:LB:g=original	!	!	!	!	!
=16	=16	=16	=16	=16	=16	=16	=16	=16	=16
4BB-/	.	.	4B-/	4d/	.	.	.	.	.
8r	.	.	4r	4r	.	.	.	.	.
8BB-/	.	.	.	.	.	.	.	.	.
!LO:TX:t=P:problem=pod 2 kolejnymi nutami falowana linia	!	!	!	!	!	!	!	!	!
!	!	!	!LO:TX:t=P:problem=w źródle pomiędzy 2r a 00r brak kreski taktowej	!LO:TX:t=P:problem=w źródle pomiędzy 2r a 00r brak kreski taktowej	!	!	!	!	!
8C/L	X -	.	2r	2r	.	.	.	.	.
8C/J	.	.	.	.	.	.	.	.	.
4C/	.	.	.	.	.	.	.	.	.
=17	=17	=17	=17	=17	=17	=17	=17	=17	=17
!	!	!	!LO:N:vis=00	!LO:N:vis=00	!	!LO:N:vis=00	!	!	!
4C/	.	.	00r	00r	.	00r	.	.	.
8r	.	.	.	.	.	.	.	.	.
8C/	.	.	.	.	.	.	.	.	.
8D/L	X 6	.	.	.	.	.	.	.	.
8D/J	.	.	.	.	.	.	.	.	.
4D/	.	.	.	.	.	.	.	.	.
=18	=18	=18	=18	=18	=18	=18	=18	=18	=18
4D/	X 6	.	.	.	.	.	.	1r	1r
8r	.	.	.	.	.	.	.	.	.
8D/	.	.	.	.	.	.	.	.	.
!LO:LB:g=original	!	!	!	!	!	!	!	!	!
8F\L	.	.	.	.	.	.	.	.	.
8F\J	.	.	.	.	.	.	.	.	.
4F\	.	.	.	.	.	.	.	.	.
=19	=19	=19	=19	=19	=19	=19	=19	=19	=19
4F\	.	.	.	.	.	.	.	2r	2r
4r	.	.	.	.	.	.	.	.	.
!	!	!	!	!	!	!	!	!	!LO:TX:t=P:problem=grupa od 8cc do 4r ujęta w znaki repetycji
4FF/	.	.	.	.	.	.	.	8a\L	8cc\L
.	.	.	.	.	.	.	.	16b-\L	16dd\L
.	.	.	.	.	.	.	.	16cc\JJ	16ee\JJ
4r	.	.	.	.	.	.	.	8b-\L	8dd\L
.	.	.	.	.	.	.	.	16a\L	16cc\L
.	.	.	.	.	.	.	.	16g\JJ	16b-\JJ
=20	=20	=20	=20	=20	=20	=20	=20	=20	=20
4F\	.	.	.	.	.	.	.	4a/	4cc\
4r	.	.	.	.	.	.	.	4r	4r
4FF/	.	.	.	.	.	.	.	8a\L	8cc\L
.	.	.	.	.	.	.	.	16b-\L	16dd\L
.	.	.	.	.	.	.	.	16cc\JJ	16ee\JJ
4r	.	.	.	.	.	.	.	8b-\L	8dd\L
.	.	.	.	.	.	.	.	16a\L	16cc\L
.	.	.	.	.	.	.	.	16g\JJ	16b-\JJ
=21	=21	=21	=21	=21	=21	=21	=21	=21	=21
!	!	!	!LO:N:vis=0	!LO:N:vis=0	!	!LO:N:vis=00	!	!	!
4FF/	.	.	0r	0r	.	0r	.	4a/	4cc\
!LO:TX:a:t=P:problem=mixed beam	!	!	!	!	!	!	!	!	!
8BB-/L	.	.	.	.	.	.	.	4r	4r
8E-X\J	.	.	.	.	.	.	.	.	.
!LO:TX:a:t=P:problem=mixed beam	!	!	!	!	!	!	!	!LO:TX:t=P:problem=w źródle pomiędzy 2r a 1r brak kreski taktowej	!
8F\L	.	.	.	.	.	.	.	2r	2r
8E-\	.	.	.	.	.	.	.	.	.
8F\	X 4	.	.	.	.	.	.	.	.
8FF/J	X 3	.	.	.	.	.	.	.	.
=22	=22	=22	=22	=22	=22	=22	=22	=22	=22
4BB-/	.	.	.	.	.	.	.	1r	1r
8r	.	.	.	.	.	.	.	.	.
8BB-/	4- 2	.	.	.	.	.	.	.	.
8C/L	X -	.	.	.	.	.	.	.	.
16D/L	.	.	.	.	.	.	.	.	.
16E-X/JJ	.	.	.	.	.	.	.	.	.
!LO:TX:a:t=P:problem=mixed beam	!	!	!	!	!	!	!	!	!
8F\L	.	.	.	.	.	.	.	.	.
8FF/J	.	.	.	.	.	.	.	.	.
!	!	!	!	!	!	!	!	!LO:LB:g=original	!
=23	=23	=23	=23	=23	=23	=23	=23	=23	=23
!	!	!	!LO:TX:t=P:problem=w źródle pomiędzy 1r a 4r brak kreski taktowej	!LO:TX:t=P:problem=w źródle pomiędzy 1r a 4r brak kreski taktowej	!	!	!	!	!
4BB-/	.	.	1r	1r	.	1r	.	8r	8r
.	.	.	.	.	.	.	.	8dd\	8ff\
8r	.	.	.	.	.	.	.	(>16dd\LL	(>16ff\LL
.	.	.	.	.	.	.	.	16cc\J)	16ee\J)
8BB-/	.	.	.	.	.	.	.	8cc\J	8ee\J
!LO:TX:a:t=P:problem=mixed beam	!	!	!	!	!	!	!	!	!
8F\L	.	.	.	.	.	.	.	16b-\LL	16dd\LL
.	.	.	.	.	.	.	.	16a\	16cc\
8E-X\	.	.	.	.	.	.	.	16b-\	16dd\
.	.	.	.	.	.	.	.	16cc\JJ	16ee\JJ
!	!	!	!	!	!	!	!	!	!LO:LB:g=original
8F\	.	.	.	.	.	.	.	8.b-\L	8dd\L
8FF/J	.	.	.	.	.	.	.	.	16cc\L
.	.	.	.	.	.	.	.	16a\Jk	16b-\JJ
=24	=24	=24	=24	=24	=24	=24	=24	=24	=24
!	!	!	!	!	!	!	!	!LO:TX:b:t=Tutti	!
4BB-/	.	.	4r	4r	.	4r	.	4b-\	4b-\
!LO:TX:a:t=Tutti	!	!	!LO:TX:b:t=Tutti	!LO:TX:b:t=Tutti	!	!	!	!	!
!	!	!	!LO:LB:g=original	!	!	!	!	!	!
8B-\L	.	.	8dd\L	8bb-\L	.	8B-\	Et	8b-\L	8dd\L
8B-\J	.	.	8dd\J	8bb-\J	.	8B-\	non	8b-\J	8dd\J
!LO:TX:a:t=c	!	!	!	!	!	!	!	!	!
8F#X\L	.	.	8cc\L	8aa\L	.	8F#X\	tan-	8a/L	8cc\L
8F#\J	.	.	8cc\J	8aa\J	.	8F#\	-get	8a/J	8cc\J
8r	.	.	8r	8r	.	8r	.	8r	8r
8F#\|	.	.	8cc\	8aa\	.	8F#\	non	8a/	8cc\
=25	=25	=25	=25	=25	=25	=25	=25	=25	=25
8G\L	.	.	8b-/L	8bb-\L	.	8G\	tan-	8g/L	8b-\L
8G\J	.	.	8b-/J	8bb-\J	.	8G\	-get	8g/J	8b-\J
8r	.	.	8r	8r	.	8r	.	8r	8r
*	*	*	*	*	*	*	*ij	*	*
8G\	X -	.	8dd\	8bb-\	.	8G\	non	8g/	8b-\
!LO:LB:g=original	!	!	!	!	!	!	!	!	!
8BB#X/L	6 5	.	8dd\L	8gg\L	.	8BB#/	tan-	8bX\L	8dd\L
8BB#/J	.	.	8dd\J	8gg\J	.	8BB#/	-get	8b\J	8dd\J
8r	.	.	8r	8r	.	8r	.	8r	8r
8BB#/	.	.	8dd\	8gg\	.	8BB#/	non	8dd\	8dd\
=26	=26	=26	=26	=26	=26	=26	=26	=26	=26
8C/L	.	.	8cc\L	8ee-X\L	.	8C/	tan-	8cc\L	8ee\L
.	X -	.	.	.	.	.	.	.	.
8C/J	.	.	8cc\J	8ee-\J	.	8C/	-get	8cc\J	8ee\J
*	*	*	*	*	*	*	*Xij	*	*
8r	.	.	8r	8r	.	8r	.	8r	8r
8F#X\	65	.	16dd\LL	8aa\	.	8F#X\	non	8a/	8cc\
.	.	.	16cc\JJ	.	.	.	.	.	.
!	!	!	!	!	!	!LO:LB:g=original	!	!	!
8G\L	.	.	8b-/L	8gg\L	.	8G\	tan-	8g/L	8b-\L
8G\J	.	.	8b-/J	8gg\J	.	8G\	-get	8g/J	8b-\J
8r	.	.	8r	8r	.	8r	.	8r	8r
*	*	*	*	*	*	*	*ij	*	*
8F#X\	65	.	16dd\LL	8aa\	.	8F#X\	non	8g/	16dd\LL
.	.	.	16cc\JJ	.	.	.	.	.	16cc\JJ
=27	=27	=27	=27	=27	=27	=27	=27	=27	=27
8G\L	.	.	8b-\L	8bb-\L	.	8G\	tan-	8g/L	8b-\L
8A\	X 6|	.	8cc\	8aa\	.	8A\	-get,	8f#X/J	8cc\
*	*	*	*	*	*	*	*Xij	*	*
!	!	!	!	!	!	!	!	!LO:LB:g=original	!
8B-\	X 6	.	8dd\	8gg\	.	8B-\	e-	8g/L	8dd\
8G\J	.	.	8dd\J	8gg\J	.	16G\	-os	8g/J	8dd\J
.	.	.	.	.	.	16G\	tor-	.	.
!LO:TX:a:t=P:problem=mixed beam	!	!	!	!	!	!	!	!	!
8A\L	X #	.	8cc#X\L	8ee\L	.	8A\	-men-	8a/L	8cc#X\L
8G\	7 5	.	8dd\	8ff\	.	8G\	-tum	8bX/J	8dd\
!	!	!	!	!	!	!LO:TX:a:t=P:problem=mixed beam	!	!	!
8A\	X 4	.	8.dd\	8.ee\	.	8A/L	mor-	8.a/L	8.dd\
8AA/J	X #	.	.	.	.	8AA\J	.	.	.
.	.	.	16cc#X\Jk	16dd\Jk	.	.	.	16g/Jk	16cc#X\Jk
=28	=28	=28	=28	=28	=28	=28	=28	=28	=28
4D/	.	.	4dd\	4dd\	.	4D/	-tis,	4f#X/	4dd\
8d\L	.	.	8ff\L	8aa\L	.	8d\	et	4r	4r
8c\J	X 6	.	8ee\J	8aa\J	.	8c\	non	.	.
!	!	!	!	!	!	!	!	!LO:TX:t=P:problem=w źródle między 2r a 1r brak kreski taktowej	!
8B#X\L	.	.	8dd\L	8gg\L	.	8B#\	tan-	2r	2r
8B#\J	X 6	.	8dd\J	8gg\J	.	8B#\	-get	.	.
!	!	!	!	!LO:LB:g=original	!	!	!	!	!
8r	.	.	8r	8r	.	8r	.	.	.
8B#\	X 65	.	8dd\	8gg\	.	8B#\	non	.	.
!	!	!	!	!	!	!	!	!	!LO:LB:g=original
=29	=29	=29	=29	=29	=29	=29	=29	=29	=29
!	!	!	!	!	!	!	!	!LO:TX:t=P:problem=w źródle między 1r a 2r brak kreski taktowej	!LO:TX:t=P:problem=w źródle za 1r brak kreski taktowej
8c\L	.	.	8ee-X\L	8gg\L	.	8c\	tan-	1r	1r
.	X -	.	.	.	.	.	.	.	.
8c\J	.	.	8ee-\J	8gg\J	.	8c\	-get	.	.
!	!	!	!LO:LB:g=original	!	!	!	!	!	!
8r	.	.	8r	8r	.	8r	.	.	.
*	*	*	*	*	*	*	*ij	*	*
8c\	.	.	8ee-X\	8gg\	.	8c\	non	.	.
!LO:TX:a:t=c	!	!	!	!	!	!	!	!	!
8F#X\L	.	.	8cc\L	8ff#X\L	.	8F#X\	tan-	.	.
8F#\J	.	.	8cc\J	8ff#\J	.	8F#\	-get	.	.
*	*	*	*	*	*	*	*Xij	*	*
!	!	!	!	!	!	!LO:LB:g=original	!	!	!
8r	.	.	8r	8r	.	8r	.	.	.
8F#\	.	.	8cc\	8aa\	.	8F#X\	non	.	.
=30	=30	=30	=30	=30	=30	=30	=30	=30	=30
8G\L	.	.	8b-\L	8bb-\L	.	(>8G\L	tan-	2r	2r
8A\	X 6|	.	8cc\	8aa\	.	8A\J)	.	.	.
8B-\	X 6	.	8dd\	8gg\	.	(>8B-\L	-get	.	.
8c\J	X 6	.	8ee\J	8aa\J	.	8c\J)	.	.	.
8d\L	.	.	8dd\L	8ff#X\L	.	8d\	e-	4r	4r
.	X #	.	.	.	.	.	.	.	.
8d\J	.	.	8dd\J	8ff#\J	.	8d\	-os	.	.
8r	.	.	8r	8r	.	8r	.	8r	8r
8D/	.	.	8dd\	8ff#\	.	8D/	tor-	8dd\	8ff\
!LO:LB:g=original	!	!	!	!	!	!	!	!	!
=31	=31	=31	=31	=31	=31	=31	=31	=31	=31
*	*reverse	*	*	*2\right	*	*	*	*	*2\right
!LO:TX:a:t=P:problem=mixed beam	!	!	!	!	!	!	!	!	!
8E-X\L	.	.	8cc\L	8gg\L	.	8E-X\	-men-	8cc\L	8ee\L
8C/J	X 6	.	8b-\J	8gg\	.	8C/	-tum	8cc\J	8ee\J
4D\	X 4#	.	4a/	8.gg\	.	4D/	mor-	4a/	4dd\
.	.	.	.	16ff#X\Jk	.	.	.	.	.
2GG/	.	.	2b-/	2gg\	.	2GG/	-tis	2g/	2dd\
=32	=32	=32	=32	=32	=32	=32	=32	=32	=32
*clefC4	*	*	*	*	*	*	*	*	*
8G/L	.	.	8dd\L	2r	.	2r	.	8dd\L	2r
8A/	.	.	8cc\J	.	.	.	.	8cc\J	.
8B-/	.	.	8b-\L	.	.	.	.	8b-\L	.
8c/J	.	.	16cc\L	.	.	.	.	16cc\L	.
.	.	.	16b-\JJ	.	.	.	.	16b-\JJ	.
*clefF4	*	*	*	*	*	*	*	*	*
8D\L	X -	.	4a/	8aa\L	.	8D/	et	4a/	8aa\L
8E\	.	.	.	8gg\J	.	8E\	non	.	8gg\J
!	!	!	!LO:TX:a:t=P:problem=mixed beam	!	!	!	!	!	!
8F\	.	.	8a/L	8ff\L	.	8F\	tan-	8a/L	8ff\L
8G\J	.	.	8dd\J	16gg\L	.	8G\	-get	8b-/J	16gg\L
.	.	.	.	16ff\JJ	.	.	.	.	16ff\JJ
=33	=33	=33	=33	=33	=33	=33	=33	=33	=33
*2\right	*	*	*	*	*	*	*	*	*
4A\	.	.	4cc#X\	4ee\	.	4A\	e-	4cc#X\	4ee-#X\
.	X #	.	.	.	.	.	.	.	.
4A\	.	.	8cc#\L	8ee\L	.	8A\	-os	8cc#\L	8ee\L
.	.	.	8cc#\J	8ee\J	.	8A\	tor-	8cc#\J	8ee\J
2F#X\	X 65	.	4dd\	4aa\	.	4F#X\	-men-	4a/	4ff#X\
.	.	.	8dd\L	8aa\L	.	8F#\	-tu(m),	8a/L	8ff#\L
.	.	.	8cc#\J	8aa\J	.	8F#\	tor-	8a/J	8ff#\J
!	!	!	!	!	!	!LO:LB:g=original	!	!	!
=34	=34	=34	=34	=34	=34	=34	=34	=34	=34
4G\	X -	.	4b-/	4gg\	.	4G\	-men-	4b-\	4dd\
4C/	7 5	.	4ee-X\	4gg\	.	4C/	-tu(m)	4g/	8cc\L
.	.	.	.	.	.	.	.	.	8b-\J
!	!	!	!	!	!	!	!	!LO:LB:g=original	!
2D/	4#	.	2a/	4.gg\	.	2D\	mor-	4.g/	2a/
.	.	.	.	8ff#X\	.	.	.	8f#X/	.
=35	=35	=35	=35	=35	=35	=35	=35	=35	=35
1GG	X #	.	1b#X	1gg	.	1GG	-tis.	1g	1bX
!	!	!	!LO:LB:g=original	!LO:LB:g=original	!	!	!	!	!
=36||	=36||	=36||	=36||	=36||	=36||	=36||	=36||	=36||	=36||
*M3/4	*	*	*M3/4	*M3/4	*	*M3/4	*	*M3/4	*M3/4
!LO:TX:b:t=Visi sunt oculis	!	!	!	!	!	!	!	!	!
!LO:TX:a:t=Solo	!	!	!	!LO:TX:b:t=Visi ſunt Baſso	!	!LO:TX:a:t=Solo	!	!	!
!	!	!	!LO:N:vis=00	!LO:N:vis=00	!	!	!	!LO:N:vis=00	!LO:N:vis=00
4G\	.	.	0.r	0.r	.	4G\	Vi-	0.r	0.r
4r	.	.	.	.	.	(>8G\L	-si	.	.
.	.	.	.	.	.	8A\J)	.	.	.
4G\	.	.	.	.	.	(>8B-\L	ſunt	.	.
.	.	.	.	.	.	8G\J)	.	.	.
=37	=37	=37	=37	=37	=37	=37	=37	=37	=37
2.D/	X #	.	.	.	.	4.A\	o-	.	.
.	.	.	.	.	.	8D/	-cu-	.	.
.	.	.	.	.	.	4D/	-lis	.	.
=38	=38	=38	=38	=38	=38	=38	=38	=38	=38
2.F#X\	X 6	.	.	.	.	4c\	in-	.	.
.	.	.	.	.	.	4.c\	-si-	.	.
.	.	.	.	.	.	8d\	-pi-	.	.
=39	=39	=39	=39	=39	=39	=39	=39	=39	=39
2G\	.	.	.	.	.	4.B-\	-en-	.	.
.	.	.	.	.	.	8A\	-ti-	.	.
4G\	.	.	.	.	.	(>8G\L	-um	.	.
.	.	.	.	.	.	8A\J)	.	.	.
!LO:LB:g=original	!	!	!	!	!	!	!	!	!
=40	=40	=40	=40	=40	=40	=40	=40	=40	=40
!	!	!	!	!	!	!	!	!LO:N:vis=00	!LO:N:vis=00
4D/	X #	.	4dd\	4ff#X\	.	4F#X\	mo-	0.r	0.r
4F#X\	X 6	.	4dd\	4dd\	.	4D/	-ri	.	.
!	!	!	!	!	!	!LO:TX:t=P:problem=w źródle między 4r a 0.r brak kreski taktowej	!	!	!
4D/	.	.	4ff#X\	8aa\L	.	4r	.	.	.
.	.	.	.	8aa\J	.	.	.	.	.
=41	=41	=41	=41	=41	=41	=41	=41	=41	=41
*	*Xreverse	*	*	*	*	*	*	*	*
!	!	!	!	!	!	!LO:N:vis=00	!	!	!
4G\	.	.	4dd\	4gg\	.	0.r	.	.	.
2A\	X 6-	.	4.cc\	4.ff-X\	.	.	.	.	.
.	X 5-	.	8cc\	8ee-X\	.	.	.	.	.
=42	=42	=42	=42	=42	=42	=42	=42	=42	=42
2B-\	.	.	4b-/	4dd\	.	.	.	.	.
.	.	.	4b-/	4b-/	.	.	.	.	.
4BB-/	.	.	8ff\L	8bb-\L	.	.	.	.	.
.	.	.	8dd\J	8ff\J	.	.	.	.	.
=43	=43	=43	=43	=43	=43	=43	=43	=43	=43
!	!	!	!LO:TX:a:t=P:problem=mixed beam	!LO:TX:a:t=P:problem=mixed beam	!	!	!	!	!
4C/	X -	.	8cc\L	8ee-X\L	.	.	.	.	.
.	.	.	8cc\	8ee-\	.	.	.	.	.
4r	.	.	8cc\	8ee-\	.	.	.	.	.
.	.	.	8cc\	8ee-\	.	.	.	.	.
4C/	X :	.	8c/	8e-y/	.	.	.	.	.
.	.	.	8cc\J	8ee-\J	.	.	.	.	.
=44	=44	=44	=44	=44	=44	=44	=44	=44	=44
!	!	!	!LO:TX:a:t=P:problem=mixed beam	!LO:TX:a:t=P:problem=mixed beam	!	!	!	!	!
!	!	!	!	!	!	!	!	!LO:N:vis=00	!LO:N:vis=00
4D/	X 6	.	8b-\L	8dd\L	.	.	.	0.r	0.r
.	.	.	8b-\	8dd\	.	.	.	.	.
4r	.	.	8b-\	8dd\	.	.	.	.	.
.	.	.	8b-\	8dd\	.	.	.	.	.
4D/	.	.	8B-/	8d/	.	.	.	.	.
.	.	.	8b-\J	8dd\J	.	.	.	.	.
=45	=45	=45	=45	=45	=45	=45	=45	=45	=45
!	!	!	!	!	!	!LO:N:vis=0	!	!	!
2F\	.	.	4a/	4cc\	.	1.r	.	.	.
.	.	.	4a/	4cc\	.	.	.	.	.
4D/	X 6	.	4b-/	4ff\	.	.	.	.	.
=46	=46	=46	=46	=46	=46	=46	=46	=46	=46
2E-X\	.	.	8ee-X\L	8gg\L	.	.	.	.	.
.	.	.	8dd\	8ff\	.	.	.	.	.
.	.	.	8ee-\	8gg\	.	.	.	.	.
.	.	.	8ff\	8aa\	.	.	.	.	.
4BB-/	.	.	8ff\	8bb-\	.	.	.	.	.
.	.	.	8dd\J	8ff\J	.	.	.	.	.
=47	=47	=47	=47	=47	=47	=47	=47	=47	=47
8C/L	X -	.	8cc\L	8ee-X\L	.	2.r	.	.	.
8E-X/J	X 7	.	8b-\J	8dd\J	.	.	.	.	.
4F\	X 4	.	4.b-/	4.cc\	.	.	.	.	.
4FF/	X 3	.	.	.	.	.	.	.	.
.	.	.	8a/	8b-/	.	.	.	.	.
!	!	!	!	!LO:LB:g=original	!	!	!	!	!
=48	=48	=48	=48	=48	=48	=48	=48	=48	=48
!	!	!	!	!	!	!	!	!LO:N:vis=00	!LO:N:vis=00
4BB-/	.	.	4b-/	4b-/	.	(>8d\L	vi-	0.r	0.r
.	.	.	.	.	.	8c\J)	.	.	.
4r	.	.	4r	4r	.	(>8B-\L	-si	.	.
.	.	.	.	.	.	8d\J)	.	.	.
!	!	!	!	!LO:TX:t=P:problem=w źródle między 4r a 0.r brak kreski taktowej	!	!	!	!	!
4BB-/	.	.	4r	4r	.	(>8c\L	sunt	.	.
.	.	.	.	.	.	8B-\J)	.	.	.
!	!	!	!LO:LB:g=original	!	!	!LO:LB:g=original	!	!	!
=49	=49	=49	=49	=49	=49	=49	=49	=49	=49
!	!	!	!LO:N:vis=00	!LO:N:vis=00	!	!	!	!	!
8F\L	.	.	0.r	0.r	.	4.c\	o-	.	.
8G\	.	.	.	.	.	.	.	.	.
8A\	.	.	.	.	.	.	.	.	.
8G\J	.	.	.	.	.	8F\	-cu-	.	.
4F\	.	.	.	.	.	4F\	-lis	.	.
=50	=50	=50	=50	=50	=50	=50	=50	=50	=50
2G\	.	.	.	.	.	4B-\	in-	.	.
.	.	.	.	.	.	(>8B-\L	-si-	.	.
.	.	.	.	.	.	8A\J)	.	.	.
4C/	.	.	.	.	.	(>8B-\L	-pi-	.	.
.	.	.	.	.	.	8c\J)	.	.	.
=51	=51	=51	=51	=51	=51	=51	=51	=51	=51
4.F\	.	.	.	.	.	4.A\	-en-	.	.
8G\	.	.	.	.	.	8G\	-ti-	.	.
4F\	.	.	.	.	.	(>8A\L	-um	.	.
.	.	.	.	.	.	8B-\J)	.	.	.
!LO:LB:g=original	!	!	!	!	!	!	!	!	!
=52	=52	=52	=52	=52	=52	=52	=52	=52	=52
!	!	!	!	!	!	!	!	!LO:N:vis=00	!LO:N:vis=00
4C/	X 4	.	.	.	.	(>4A\	mo-	0.r	0.r
4CC/	X 3	.	.	.	.	8G\L	.	.	.
.	.	.	.	.	.	8F\J)	.	.	.
4FF/	.	.	.	.	.	4F\	-ri	.	.
=53	=53	=53	=53	=53	=53	=53	=53	=53	=53
*	*reverse	*	*	*	*	*	*	*	*
!	!	!	!LO:N:vis=0	!LO:N:vis=0	!	!	!	!	!
2AA/	X 6-	.	1.r	1.r	.	(>4F\	mo-	.	.
.	X 5	.	.	.	.	8E\L	.	.	.
.	.	.	.	.	.	8D\J)	.	.	.
4BB-/	.	.	.	.	.	4D/	-ri	.	.
=54	=54	=54	=54	=54	=54	=54	=54	=54	=54
4F\	X 4	.	.	.	.	(<4D/	mo-	.	.
4FF/	X 3	.	.	.	.	8C/L	.	.	.
.	.	.	.	.	.	8BB-/J)	.	.	.
4BB-/	.	.	.	.	.	4BB-/	-ri	.	.
=55	=55	=55	=55	=55	=55	=55	=55	=55	=55
!LO:TX:t=P:problem=w źródle między 1.r a 4 D brak kreski taktowej	!	!	!	!	!	!	!	!	!
!LO:N:vis=0	!	!	!	!	!	!LO:N:vis=0	!	!	!
1.r	.	.	4d/	4f/	.	1.r	.	.	.
.	.	.	8d/L	8f/L	.	.	.	.	.
.	.	.	8c/J	8e-X/J	.	.	.	.	.
.	.	.	4B-/	4d/	.	.	.	.	.
=56	=56	=56	=56	=56	=56	=56	=56	=56	=56
!	!	!	!	!	!	!	!	!LO:N:vis=00	!LO:N:vis=00
.	.	.	4B-/	4d/	.	.	.	0.r	0.r
.	.	.	8B-/L	8d/L	.	.	.	.	.
.	.	.	8A/J	8c/J	.	.	.	.	.
.	.	.	4B-/	4B-/	.	.	.	.	.
=57	=57	=57	=57	=57	=57	=57	=57	=57	=57
!	!	!	!LO:N:vis=00	!LO:N:vis=00	!	!	!	!	!
4D/	X 6	.	0.r	0.r	.	4F\	vi-	.	.
4r	.	.	.	.	.	(>8B-\L	-si	.	.
.	.	.	.	.	.	8F\J)	.	.	.
4D/	X -	.	.	.	.	8G\L	sunt	.	.
.	X 5	.	.	.	.	8A-X\J	.	.	.
=58	=58	=58	=58	=58	=58	=58	=58	=58	=58
2.E-X\	.	.	.	.	.	4.G\	o-	.	.
.	.	.	.	.	.	8G\	-cu-	.	.
.	.	.	.	.	.	4G\	-lis	.	.
!	!	!	!	!	!	!LO:LB:g=original	!	!	!
=59	=59	=59	=59	=59	=59	=59	=59	=59	=59
4AA/	X 6	.	.	.	.	4F\	in-	.	.
4FF/	.	.	.	.	.	8F\L	-si-	.	.
.	.	.	.	.	.	8G\J	.	.	.
4AA/	X 6-	.	.	.	.	8F\L	-pi-	.	.
.	X 5	.	.	.	.	8E-X\J	.	.	.
=60	=60	=60	=60	=60	=60	=60	=60	=60	=60
!	!	!	!	!	!	!	!	!LO:N:vis=00	!LO:N:vis=00
2BB-/	.	.	.	.	.	8D\L	-en-	0.r	0.r
.	.	.	.	.	.	8E-X\	.	.	.
.	.	.	.	.	.	8D\	.	.	.
.	.	.	.	.	.	8E-\J	.	.	.
4D/	X 6	.	.	.	.	4F\	.	.	.
=61	=61	=61	=61	=61	=61	=61	=61	=61	=61
!	!	!	!LO:N:vis=0	!LO:N:vis=0	!	!	!	!	!
8E-X\L	.	.	1.r	1.r	.	8E-X\	-tium	.	.
8BB-\J	.	.	.	.	.	8D/	.	.	.
4F\	X 4	.	.	.	.	(<4D/	mo-	.	.
4FF/	X 3	.	.	.	.	8C/L	.	.	.
.	.	.	.	.	.	8BB-/J)	.	.	.
=62	=62	=62	=62	=62	=62	=62	=62	=62	=62
*	*Xreverse	*	*	*	*	*	*	*	*
4BB-/	.	.	.	.	.	4BB-/	-ri,	.	.
4AA/	X 5-	.	.	.	.	8C/L	mo-	.	.
.	.	.	.	.	.	8D/	.	.	.
4FF/	X 7-	.	.	.	.	8E-X/	.	.	.
.	.	.	.	.	.	8C/J	.	.	.
=63	=63	=63	=63	=63	=63	=63	=63	=63	=63
4AA/	.	.	2.r	2.r	.	(<8D/L	-ri	.	.
.	.	.	.	.	.	8E-X/J)	.	.	.
4F\	X 4	.	.	.	.	4D/	mo-	.	.
4FF/	X 3	.	.	.	.	8C/L	.	.	.
.	.	.	.	.	.	8BB-/J	.	.	.
=64	=64	=64	=64	=64	=64	=64	=64	=64	=64
!	!	!	!	!	!	!	!	!LO:N:vis=00	!LO:N:vis=00
4BB-/	.	.	8d/L	8f/L	.	4BB-/	-ri	0.r	0.r
.	.	.	8d/	8f/	.	.	.	.	.
4r	.	.	8d/	8f/	.	4r	.	.	.
.	.	.	8d/	8f/	.	.	.	.	.
!	!	!	!	!	!	!LO:TX:t=P:problem=w źródle między 4r a 0.r brak kreski taktowej	!	!	!
4BB-/	.	.	8d/	8f/	.	4r	.	.	.
.	.	.	8e-X/J	8g/J	.	.	.	.	.
!LO:LB:g=original	!	!	!	!	!	!	!	!	!
=65	=65	=65	=65	=65	=65	=65	=65	=65	=65
!	!	!	!	!	!	!LO:N:vis=00	!	!	!
4C/	X -	.	8c/L	8e-X/L	.	0.r	.	.	.
.	.	.	8c/	8e-/	.	.	.	.	.
4r	.	.	8c/	8e-/	.	.	.	.	.
.	.	.	8c/	8e-/	.	.	.	.	.
4C/	.	.	8c/	8e-/	.	.	.	.	.
.	.	.	8d/J	8f/J	.	.	.	.	.
=66	=66	=66	=66	=66	=66	=66	=66	=66	=66
4D/	X 6	.	8B-/L	8d/L	.	.	.	.	.
.	.	.	8B-/	8d/	.	.	.	.	.
4r	.	.	8B-/	8d/	.	.	.	.	.
.	.	.	8B-/	8d/	.	.	.	.	.
4D/	.	.	8B-/	8d/	.	.	.	.	.
.	.	.	8c/J	8e-X/J	.	.	.	.	.
=67	=67	=67	=67	=67	=67	=67	=67	=67	=67
2F\	.	.	4A/	4c/	.	.	.	.	.
.	.	.	4A/	4c/	.	.	.	.	.
4D/	X 6	.	8d/L	8f/L	.	.	.	.	.
.	.	.	8B-/J	8d/J	.	.	.	.	.
=68	=68	=68	=68	=68	=68	=68	=68	=68	=68
!	!	!	!	!	!	!	!	!LO:N:vis=0	!LO:N:vis=0
2E-X\	.	.	8e-X/L	8g/L	.	.	.	1.r	1.r
.	.	.	8d/	8f/	.	.	.	.	.
.	.	.	8e-/	8g/	.	.	.	.	.
.	.	.	8f/J	8a/J	.	.	.	.	.
4BB-/	.	.	4g/	4b-/	.	.	.	.	.
=69	=69	=69	=69	=69	=69	=69	=69	=69	=69
!LO:N:vis=4.	!	!	!	!	!	!LO:N:vis=0	!	!	!
4D\	X 6	.	8B-/L	8d/L	.	1.r	.	.	.
.	.	.	8c/J	8e-X/J	.	.	.	.	.
4F\	X 4	.	4.B-/	4.c/	.	.	.	.	.
4FF/	X 3	.	.	.	.	.	.	.	.
.	.	.	8A/	8c/	.	.	.	.	.
!	!	!	!	!LO:LB:g=original	!	!	!	!	!
=70	=70	=70	=70	=70	=70	=70	=70	=70	=70
2BB-/	.	.	4d/	4d/	.	.	.	2.r	2.r
!	!	!	!LO:LB:g=original	!	!	!	!	!	!
.	.	.	4.A/	4.c/	.	.	.	.	.
4r	.	.	.	.	.	.	.	.	.
.	.	.	8A/	8c/	.	.	.	.	.
!	!	!	!	!	!	!	!	!	!LO:LB:g=original
=71	=71	=71	=71	=71	=71	=71	=71	=71	=71
*M4/4	*	*	*M4/4	*M4/4	*	*M4/4	*	*M4/4	*M4/4
*met(c|)	*	*	*met(c|)	*met(c|)	*	*met(c|)	*	*met(c|)	*met(c|)
!LO:TX:b:t=Illi autem.	!	!	!	!	!	!	!	!	!
!LO:TX:a:t=Tutti	!	!	!	!	!	!	!	!	!
4BB-/	.	.	4B-/	4B-/	.	4r	.	4r	4r
.	.	.	.	.	.	.	.	.	.
!	!	!	!	!LO:TX:b:t=Tutti	!	!	!	!	!
8B-\L	.	.	8dd\L	8ff\L	.	8B-\	Il-	8b-\L	8dd\L
8B-\J	.	.	8dd\J	8ff\J	.	8B-\	li	8b-\J	8dd\J
8F#X\L	.	.	8cc\L	8aa\L	.	8F#X\	-au	8a/L	8cc\L
8F#\	X 5	.	8cc\	8aa\	.	8F#\	-tem	8a/	8cc\
!	!	!	!	!	!	!LO:LB:g=original	!	!	!
8F#\	.	.	8cc\	8aa\	.	8F#X\	sunt	8a/	8cc\
8F#\J	.	.	8cc\J	8aa\J	.	8F#\	in	8a/J	8cc\J
=72	=72	=72	=72	=72	=72	=72	=72	=72	=72
4G\	.	.	4dd\	4bb-\	.	4G\	pa-	4g/	4b-\
8D/L	.	.	8ff#X\L	8aa\L	.	8D/	-ce	8a/L	8dd\L
.	X #	.	.	.	.	.	.	.	.
8D/J	.	.	8ff#\J	8aa\J	.	8D/	in	8a/J	8dd\J
*	*	*	*	*	*	*2\right	*	*	*
2E-X\	X 76	.	4dd\	2gg\	.	2E-X\	pa-	4.g/	8dd\L
.	.	.	.	.	.	.	.	.	16cc\L
.	.	.	.	.	.	.	.	.	16b-\JJ
.	.	.	4cc\	.	.	.	.	.	4cc\
.	.	.	.	.	.	.	.	8g/	.
=73	=73	=73	=73	=73	=73	=73	=73	=73	=73
4D/	X #	.	4dd\	4ff#X\	.	4D/	-ce	4a/	4dd\
4r	.	.	4r	4r	.	4r	.	4r	4r
2r	.	.	2r	2r	.	2r	.	2r	2r
=74	=74	=74	=74	=74	=74	=74	=74	=74	=74
4r	.	.	4r	4r	.	4r	.	4r	4r
4D/	X #	.	4ff#X\	4aa\	.	4D/	in	4f#X/	4a/
!LO:LB:g=original	!	!	!	!	!	!	!	!	!
4G\	.	.	8gg\L	8bb-\L	.	4G\	pa-	8g/L	8b-\L
.	.	.	16ff#X\L	16aa\L	.	.	.	16f#X/L	16a\L
.	.	.	16ee\JJ	16gg\JJ	.	.	.	16e/JJ	16g\JJ
!	!	!	!	!	!	!	!	!LO:LB:g=original	!
4D/	X #	.	8ff#\L	8aa\L	.	8D/	-ce	8f#X/L	8a/L
.	.	.	8ff#\J	8aa\J	.	8D/	in	8f#/J	8a/J
=75	=75	=75	=75	=75	=75	=75	=75	=75	=75
4G\	.	.	8gg\L	8bb-\L	.	4G\	pa-	8g/L	8b-\L
.	.	.	16ff#X\L	16aa\L	.	.	.	16f#X/L	16a\L
.	.	.	16ee\JJ	16gg\JJ	.	.	.	16e/JJ	16g\JJ
8D\L	.	.	4ff#\	4aa\	.	(>8D\L	-ce	4f#X/	4a/
8E\J	.	.	.	.	.	8E\J)	.	.	.
8F\L	X 6	.	8dd\L	8aa\L	.	8F\	ſunt	8a/L	8dd\L
8G\J	.	.	8dd\J	16gg\L	.	8G\	in	8a/J	8dd\J
.	.	.	.	16ff\JJ	.	.	.	.	.
!LO:TX:a:t=P:problem=mixed beam	!	!	!	!	!	!LO:TX:a:t=P:problem=mixed beam	!	!	!
8A\L	X 4	.	8.dd\L	8.ee\L	.	(>8A\L	pa-	4a/	8.dd\L
8AA/J	X #	.	.	.	.	8AA/J)	.	.	.
.	.	.	16cc#X\Jk	16ee\Jk	.	.	.	.	16cc#X\Jk
=76	=76	=76	=76	=76	=76	=76	=76	=76	=76
4D/	.	.	4dd\	4ff\	.	4D/	-ce	4a/	4dd\
4r	.	.	4r	4r	.	4r	.	4r	4r
!	!	!	!	!	!	!	!	!	!LO:TX:t=P:problem=w źródle miedzy 2r a 0r brak kreski taktowej
2r	.	.	2r	2r	.	2r	.	2r	2r
!	!	!	!LO:LB:g=original	!	!	!	!	!	!
=77	=77	=77	=77	=77	=77	=77	=77	=77	=77
4r	.	.	4r	4r	.	4r	.	0r	0r
4A\	X #	.	4cc#X\	4ee\	.	4A\	in	.	.
!	!	!	!	!	!	!LO:LB:g=original	!	!	!
4d\	X -	.	8dd\L	8ff\L	.	4d\	pa-	.	.
.	.	.	16cc#X\L	16ee\L	.	.	.	.	.
.	.	.	16b#X\JJ	16dd\JJ	.	.	.	.	.
!	!	!	!	!LO:LB:g=original	!	!	!	!	!
4A\	X #	.	8cc#X\L	8ee\L	.	8A\	-ce,	.	.
.	.	.	8cc#\J	8ee\J	.	8A\	in	.	.
=78	=78	=78	=78	=78	=78	=78	=78	=78	=78
4d\	.	.	8dd\L	8ff\L	.	4d\	pa-	.	.
.	.	.	16cc#X\L	16ee\L	.	.	.	.	.
.	.	.	16b#X\JJ	16dd\JJ	.	.	.	.	.
8A\L	.	.	4cc#X\	4ee\	.	(>8A\L	-ce,	.	.
8G\J	.	.	.	.	.	8G\J)	.	.	.
8F\L	X 6	.	8dd\L	8aa\L	.	8F\	ſunt	.	.
8G\J	.	.	8dd\J	16gg\L	.	8G\	in	.	.
.	.	.	.	16ff\JJ	.	.	.	.	.
!LO:TX:a:t=P:problem=mixed beam	!	!	!	!	!	!LO:TX:a:t=P:problem=mixed beam	!	!	!
8A\L	X 4	.	8.dd\L	8.ee\L	.	(>8A\L	pa-	.	.
8AA/J	X #	.	.	.	.	8AA/J)	.	.	.
.	.	.	16cc#X\Jk	16ee\Jk	.	.	.	.	.
!	!	!	!	!	!	!	!	!	!LO:LB:g=original
=79	=79	=79	=79	=79	=79	=79	=79	=79	=79
4D\	.	.	4dd\	4ff#X\	.	4D/	-ce,	4r	4r
8B-\L	.	.	8dd\L	8ff-X\L	.	8B-\	il-	8dd\L	8ff\L
8B-\J	.	.	8dd\J	8ff-\J	.	8B-\	-li	8dd\J	8ff\J
8B-\L	.	.	8cc\L	8ee-X\L	.	8B-\	au-	8cc\L	8ee\L
.	4 2	.	.	.	.	.	.	.	.
8B-\	.	.	8cc\	8ee-\	.	8B-\	-tem	8cc\	8ee\
8A\	X 6	.	8cc\	8ff-\	.	8A\	ſunt	8cc\	8ee\
8A\J	X 5-	.	8cc\J	8ee-\J	.	8A\	in	8dd\J	8ff\J
=80	=80	=80	=80	=80	=80	=80	=80	=80	=80
4B-\	.	.	4b-/	4dd\	.	4B-\	pa-	4b-\	4dd\
4B-\	.	.	8dd\L	8ff\L	.	8B-\	-ce,	8b-\L	8dd\L
.	.	.	8dd\J	8ff\J	.	8B-\	in	8b-\J	8dd\J
4F\	.	.	4ff\	4aa\	.	4F\	pa-	4a/	4cc\
8F\L	.	.	4ff\	8aa\L	.	(>8F\L	-ce	8a/L	8cc\L
8E-X\J	.	.	.	8gg\J	.	8E\J)	.	8a/J	8cc\J
=81	=81	=81	=81	=81	=81	=81	=81	=81	=81
!LO:TX:a:t=P:problem=mixed beam	!	!	!	!	!	!	!	!	!
8D\L	X 6	.	8dd\L	8ff\L	.	8D/	ſunt	8dd\L	8ff\L
8E\	.	.	8b-\J	16ee-X\L	.	8E-X\	in	16cc\L	16ee\L
.	.	.	.	16dd\JJ	.	.	.	16b-\JJ	16dd\JJ
!	!	!	!	!	!	!LO:LB:g=original	!	!	!
8F\	.	.	8.b-/L	8.cc\L	.	8F\L	pa-	8.a/L	8cc\L
!	!	!	!	!	!	!LO:TX:a:t=P:problem=mixed beam	!	!	!
8FF/J	.	.	.	.	.	8FF/J	.	.	16b-\L
.	.	.	16a/Jk	16cc\Jk	.	.	.	16a/Jk	16cc\JJ
!LO:LB:g=original	!	!	!	!	!	!	!	!	!
4BB-/	.	.	4b-/	4dd\	.	4BB-/	-ce	4b-\	4dd\
4r	.	.	4dd\	4ff\	.	4r	.	4r	4r
!	!	!	!LO:LB:g=original	!	!	!	!	!	!
=82	=82	=82	=82	=82	=82	=82	=82	=82	=82
2r	.	.	4ee-X\	4gg\	.	2r	.	2r	2r
.	.	.	8dd\L	8ff\L	.	.	.	.	.
.	.	.	8dd\J	8ff\J	.	.	.	.	.
4r	.	.	8ee-X\L	8gg\L	.	4r	.	4r	4r
.	.	.	16dd\L	16ff\L	.	.	.	.	.
.	.	.	16cc\JJ	16ee-X\JJ	.	.	.	.	.
8r	.	.	8dd\	8ff\	.	8r	.	8r	8r
8BB-/	.	.	8r	8r	.	8BB-/	in	8dd\	8ff\
=83	=83	=83	=83	=83	=83	=83	=83	=83	=83
!	!	!	!LO:TX:t=P:problem=w źródle pomiędzy 1r a 8dd brak kreski taktowej	!LO:TX:t=P:problem=w źródle pomiędzy 1r a 8ff brak kreski taktowej	!	!	!	!	!
4E-X\	.	.	1r	1r	.	4E-X\	pa-	8ee\L	8gg\L
.	.	.	.	.	.	.	.	16dd\L	16ff\L
.	.	.	.	.	.	.	.	16cc\JJ	16ee\JJ
8BB-/L	.	.	.	.	.	8BB-/	-ce	8dd\L	8ff\L
8BB-/J	.	.	.	.	.	8BB-/	in	8dd\J	8ff\J
4E-X\	.	.	.	.	.	4E-X\	pa-	8ee\L	8gg\L
.	.	.	.	.	.	.	.	16dd\L	16ff\L
.	.	.	.	.	.	.	.	16cc\JJ	16ee\JJ
4BB-/	.	.	.	.	.	4BB-/	-ce	4dd\	4ff\
=84	=84	=84	=84	=84	=84	=84	=84	=84	=84
4B-\	.	.	8dd\L	8ff\L	.	8B-\	il-	8b-\L	8dd\L
.	.	.	8dd\	8ff\	.	8B-\	-li	8b-\	8dd\
!	!	!	!	!LO:LB:g=original	!	!	!	!	!
8A\L	X 6	.	8cc\	8ff\	.	8A\	au-	8cc\	8ff\
8G\J	.	.	8b-\J	8gg\J	.	8G\	-tem	8b-\J	8dd\J
!LO:TX:a:t=P:problem=mixed beam	!	!	!	!	!	!	!	!	!LO:LB:g=original
8F\L	.	.	8cc\L	8aa\L	.	8F\	ſunt	8a\L	8cc\L
8B-\	.	.	8dd\J	8ff\J	.	8B-\	in	8b-\J	8dd\J
8c\	.	.	8.cc\L	8.ff\L	.	8c\L	pa-	8.g/L	8.cc\L
!	!	!	!	!	!	!LO:TX:a:t=P:problem=mixed beam	!	!	!
8C/J	.	.	.	.	.	8C/J	.	.	.
.	.	.	16b-\Jk	16ee\Jk	.	.	.	16g/Jk	16b-\Jk
=85	=85	=85	=85	=85	=85	=85	=85	=85	=85
4F\	.	.	4a/	4ff\	.	4F\	-ce	4f/	4a/
4r	.	.	4r	4r	.	4r	.	4a/	4cc\
2r	.	.	2r	2r	.	2r	.	8b-/L	8dd\L
.	.	.	.	.	.	.	.	16a/L	16cc\L
.	.	.	.	.	.	.	.	16g/JJ	16b-\JJ
.	.	.	.	.	.	.	.	8a/L	8cc\L
.	.	.	.	.	.	.	.	8a/J	8cc\J
=86	=86	=86	=86	=86	=86	=86	=86	=86	=86
4r	.	.	4r	4r	.	4r	.	8b-/L	8dd\L
.	.	.	.	.	.	.	.	16a/L	16cc\L
.	.	.	.	.	.	.	.	16g/JJ	16b-\JJ
8r	.	.	8r	8r	.	8r	.	4a/	4cc\
8F\	.	.	8a/	8cc\	.	8F\	in	.	.
!	!	!	!	!	!	!LO:LB:g=original	!	!	!
4B-\	.	.	8b-/L	8dd\L	.	4B-\	pa-	2r	2r
.	.	.	16a/L	16cc\L	.	.	.	.	.
.	.	.	16g/JJ	16b-\JJ	.	.	.	.	.
4F\	.	.	8a/L	8cc\L	.	8F\	-ce,	.	.
*	*	*	*	*	*	*	*ij	*	*
.	.	.	8a/J	8cc\J	.	8F\	in	.	.
=87	=87	=87	=87	=87	=87	=87	=87	=87	=87
4B-\	.	.	8b-/L	8dd\L	.	4B-\	pa-	2r	2r
.	.	.	16a/L	16cc\L	.	.	.	.	.
.	.	.	16g/JJ	16b-\JJ	.	.	.	.	.
4F\	.	.	4a/	4cc\	.	4F\	-ce,	.	.
*	*	*	*	*	*	*	*Xij	*	*
!LO:TX:b:t=tardè	!	!	!	!LO:TX:a:t=tardè	!	!	!	!	!
4.B-\	.	.	4.dd\	4.ff\	f	4.B-\	il-	4.b-\	4.dd\
8B-\	.	.	8dd\	8ff\	.	8B-\	-li	8b-\	8dd\
!	!	!	!LO:LB:g=original	!	!	!	!	!LO:LB:g=original	!
=88	=88	=88	=88	=88	=88	=88	=88	=88	=88
2F#X\	X 5	.	4.ff#X\	4.aa\	.	4.F#X\	au-	4.a/	4.ff#X\
.	.	.	8ff#\	8aa\	.	8F#\	-tem	8a/	8ff#\
2G\	.	.	4dd\	4bb-\	.	4G\	ſunt	4b-\	4dd\
.	.	.	4dd\	4bb-\	.	4G\	in	4b-\	4dd\
=89	=89	=89	=89	=89	=89	=89	=89	=89	=89
2C#X/	X 65	.	4ee\	4gg\	.	4C#X/	pa-	4cc#X\	4ee\
.	.	.	8ee\L	4gg\	.	8C#/	-ce	8cc#\L	8ee\L
.	.	.	8ee\J	.	.	8C#/	in	8cc#\J	8ee\J
*	*reverse	*	*	*	*	*	*	*	*
!LO:LB:g=original	!	!	!	!	!	!	!	!	!
2D/	X 4#	.	4.dd\	4.gg\	.	2D/	pa-	2a/	2dd\
.	.	.	8cc\	8ff#X\	.	.	.	.	.
=90	=90	=90	=90	=90	=90	=90	=90	=90	=90
4GG/	X #	.	4b#/	4gg\	.	4GG/	-ce	4bX\	4dd\
4r	.	.	4r	4r	.	4r	.	4r	4r
4r	.	.	4r	4r	.	4r	.	4r	4r
4G\	X #	.	4dd\	4bb#X\	.	4G\	in	4g/	4bX\
!	!	!	!	!	!	!	!	!	!LO:LB:g=original
=91	=91	=91	=91	=91	=91	=91	=91	=91	=91
!	!	!	!	!	!	!	!	!	!LO:TX:t=P:problem=w źródle takt zapisany na końcu ostatniego systemu
4c\	X -	.	8ee-X\L	8ccc\L	.	4c\	pa-	8a-X/L	8cc\L
.	.	.	16dd\L	16bb#X\L	.	.	.	16g/L	16bX\L
.	.	.	16cc\JJ	16aa\JJ	.	.	.	16f/JJ	16a\JJ
!	!	!	!	!LO:LB:g=original	!	!	!	!	!
4G\	X #	.	4dd\	4bb#X\	.	4G\	-ce	4g/	4b-#X\
4r	.	.	4r	4r	.	4r	.	4r	4r
8r	.	.	8r	8r	.	8r	.	8r	8r
8G\	X #	.	8dd\	8bb#X\	.	8G\	in	8g/	8b-#X\
!	!	!	!	!	!	!LO:LB:g=original	!	!	!
=92	=92	=92	=92	=92	=92	=92	=92	=92	=92
4c\	X -	.	8ee-X\L	8ccc\L	.	4c\	pa-	8a-X/L	8cc\L
.	.	.	16dd\L	16bb#X\L	.	.	.	16g/L	16bX\L
.	.	.	16cc\JJ	16aa\JJ	.	.	.	16f/JJ	16a\JJ
4G\	.	.	8dd\L	8bb#X\L	.	8G\	-ce,	8g/L	8b-#X\L
.	.	.	8dd\J	8bb#\J	.	8G\	in	8g/J	8b\J
4F#X\	.	.	4ff#X\	4aa\	.	4F#X\	pa-	4a#/	4dd\
4G\	.	.	4dd\	4gg\	.	4G\	-ce	4b-\	4dd\
=93	=93	=93	=93	=93	=93	=93	=93	=93	=93
2D/	X 4#	.	4.dd\	4.gg\	.	2D/	pa-	4.a/	4.dd\
.	.	.	8cc\	8ff#X\	.	.	.	8a/	8cc\
!	!	!	!LO:LB:g=original	!	!	!	!	!	!
4GG/	.	.	4b-/	4gg\	.	4GG/	-ce,	4g/	4bX\
4BB#X/	6 5	.	4dd\	4gg\	.	4BB#/	in	4bX\	4dd\
!	!	!	!	!	!	!	!	!LO:LB:g=original	!
=94	=94	=94	=94	=94	=94	=94	=94	=94	=94
*	*	*	*2\right	*	*	*	*	*2\right	*
2C/	X -	.	4.cc\	4.ee-X\	.	2C/	pa-	4cc\	4ee\
.	.	.	.	.	.	.	.	8bX\L	8dd\L
.	.	.	8cc\	8ee-\	.	.	.	8a\J	8cc\J
2GG/	.	.	2dd\	2gg\	.	2GG/	-ce.	2b-#X\	2dd\
==	==	==	==	==	==	==	==	==	==
*-	*-	*-	*-	*-	*-	*-	*-	*-	*-
!!!system-decoration: [(s1,s2)]s3[(s4,s5)]s6
!!!RDF**kern: > = above
!!!RDF**kern: < = below
!!!EED: Antoni Szymański
!!!EST: 2020-10-09
!!!ENC: Anastazja Marusiak
!!!END: 2020-06-10
!!!RDF**kern: | = vertical stroke
